frontend/public/svg/logos/google.svg

<svg width="173" height="169" viewBox="0 0 173 169" fill="none" xmlns="http://www.w3.org/2000/svg">
<g clip-path="url(#clip0)">
<path d="M162.043 76.775C160.881 76.6549 159.714 76.5951 158.546 76.5965C154.726 76.6463 150.907 76.6916 147.039 76.7369C135.124 76.8761 122.804 77.0204 110.687 77.3191C106.133 77.539 101.602 78.0962 97.1302 78.9875C93.7107 79.5874 91.7751 81.9161 92.0816 85.0658C92.3534 87.8677 94.3952 89.6779 97.5437 89.909C101.503 90.201 105.584 90.1564 109.099 90.0901C116.828 89.9444 124.555 89.7842 132.283 89.6103L133.767 89.5782C140.59 89.4298 147.412 89.2874 154.235 89.1509C155.482 89.1246 156.734 89.2047 158.319 89.3038L158.539 89.3176L159.778 89.3924C158.727 114.176 149.185 131.804 130.628 143.27C110.747 155.553 89.0992 160 66.2856 156.489C51.1847 154.163 39.0929 147.073 30.3459 135.413C18.5043 119.631 12.2467 102.499 11.7459 84.4929C10.9222 54.9347 25.004 32.0166 51.394 19.9603C61.5882 15.3049 70.2354 12.6705 78.609 11.6695C101.979 8.87551 120.888 14.3199 136.407 28.3222C136.57 28.4686 136.73 28.6208 136.922 28.8039C137.44 29.3307 138.01 29.8034 138.623 30.215C141.168 31.821 143.792 31.6216 145.823 29.6663C148.009 27.566 148.263 24.7003 146.472 22.3709C144.867 20.3364 142.991 18.5316 140.896 17.0068C127.847 7.20218 112.214 1.43003 95.9245 0.401573C72.7138 -1.16642 50.9084 5.26483 31.1034 19.5258C15.3513 30.8699 5.60788 46.8204 2.15095 66.9358C-1.27317 86.8557 2.04002 106.915 11.996 126.558C17.0229 136.473 22.6242 144.25 29.1206 150.335C41.7078 162.126 57.5249 168.081 77.4735 168.537C78.2487 168.554 79.0205 168.563 79.7956 168.563C94.2502 168.563 108.686 165.491 123.925 159.173C139.276 152.806 151.193 143.276 159.343 130.838C167.304 118.693 171.485 104.078 171.776 87.3998C171.911 79.7265 169.818 77.4412 162.043 76.775Z" fill="black"/>
</g>
<defs>
<clipPath id="clip0">
<rect width="171.961" height="168.679" fill="white" transform="translate(0.466064 0.078125)"/>
</clipPath>
</defs>
</svg>

<svg xmlns="http://www.w3.org/2000/svg" width="173" height="169" fill="none" viewBox="0 0 173 169"><g clip-path="url(#a)"><path fill="#000" d="M162.043 76.775a34 34 0 0 0-3.497-.178c-3.82.05-7.639.095-11.507.14-11.915.14-24.235.283-36.352.582-4.554.22-9.085.777-13.557 1.668-3.42.6-5.355 2.93-5.048 6.079.271 2.802 2.313 4.612 5.462 4.843 3.959.292 8.04.247 11.555.181q11.593-.219 23.184-.48l1.484-.032q10.234-.222 20.468-.427c1.247-.026 2.499.054 4.084.153l.22.014 1.239.074c-1.051 24.784-10.593 42.412-29.15 53.878-19.881 12.283-41.529 16.73-64.342 13.219-15.101-2.326-27.193-9.416-35.94-21.076-11.842-15.782-18.1-32.914-18.6-50.92-.824-29.558 13.258-52.476 39.648-64.533 10.194-4.655 18.841-7.29 27.215-8.29 23.37-2.794 42.279 2.65 57.798 16.652.163.147.323.299.515.482.518.527 1.088 1 1.701 1.411 2.545 1.606 5.169 1.407 7.2-.549 2.186-2.1 2.44-4.966.649-7.295a28.4 28.4 0 0 0-5.576-5.364A83.64 83.64 0 0 0 95.925.402C72.714-1.166 50.907 5.265 31.102 19.526 15.351 30.87 5.608 46.82 2.151 66.936c-3.424 19.92-.111 39.979 9.845 59.622 5.027 9.915 10.628 17.692 17.125 23.777 12.587 11.791 28.404 17.746 48.353 18.202.775.017 1.546.026 2.322.026 14.454 0 28.89-3.072 44.129-9.39 15.351-6.367 27.268-15.897 35.418-28.335 7.961-12.145 12.142-26.76 12.433-43.438.135-7.674-1.958-9.959-9.733-10.625"/></g><defs><clipPath id="a"><path fill="#fff" d="M.466.078h171.961v168.68H.467z"/></clipPath></defs></svg>
